X:2
%%MIDI gchord c
T:Balade
C:Bruno Scherrer
M:4/4
L:1/8
Q:1/4=120
K:G
"^A""Em11"B4de3 | {f}g3f3e2 | "GΔ"d3e3B2- | B6d2 |
"CΔ9"e3e3e2 | e6 c2 | "Em11"B8 |1 z8 :|2 z6e2 |]
"^B""Em11"b3b3b2 | a4g2a2 | "Am7"a3e3c2- | c6e2 |
"Am7/F#"g3g3g2 | f3d3e2- | "Em11"e8 | z4de3 |
"D7"g3g3g2 | "CΔ"f3e3d2 | "Am9"e3B3A2- | "Am7"A3GAG3 |
"Esus"E8 | "Em7"z8 | "A7"^c8 | "Am7"c8 |
"Esus"B8 | "Em7"z8 | "A7"^c8 | "Am7"c8 ||


